public/icons/picto-resource.svg

<svg fill="none" height="74" viewBox="0 0 76 74" width="76" xmlns="http://www.w3.org/2000/svg"><path d="m1 37c0 9.5478 3.67943 18.7045 10.2288 25.4558 6.5495 6.7514 15.4324 10.5442 24.6947 10.5442 9.2622 0 18.1452-3.7928 24.6946-10.5442 6.5494-6.7513 10.2288-15.908 10.2288-25.4558s-3.6794-18.7045-10.2288-25.4558c-6.5494-6.75135-15.4324-10.5442-24.6946-10.5442-9.2623 0-18.1452 3.79285-24.6947 10.5442-6.54937 6.7513-10.2288 15.908-10.2288 25.4558z" fill="#e8f4fa" stroke="#daedf7"/><path d="m18.3457 62.0261c0 .529 1.9026 1.0363 5.2893 1.4103s7.9801.5841 12.7696.5841 9.3829-.2101 12.7696-.5841 5.2893-.8813 5.2893-1.4103c0-.5289-1.9026-1.0362-5.2893-1.4102s-7.9801-.5842-12.7696-.5842-9.3829.2102-12.7696.5842-5.2893.8813-5.2893 1.4102z" fill="#45413c" opacity=".15"/><path d="m17.6992 11.4968h37.4083v49.1994h-37.4083z" fill="#e8f4fa"/><path d="m55.1075 13.2968c0-.4774-.184-.9352-.5115-1.2728-.3274-.3375-.7716-.5272-1.2347-.5272h-33.9159c-.4631 0-.9073.1897-1.2347.5272-.3275.3376-.5115.7954-.5115 1.2728v3.519c0-.3492.0668-.6951.1964-1.0177.1297-.3227.3197-.6159.5593-.8628.2395-.247.524-.4429.837-.5765.313-.1337.6485-.2025.9873-.2025h32.2483c.6843 0 1.3405.2802 1.8243.779.4839.4987.7557 1.1752.7557 1.8805z" fill="#fff"/><g stroke="#45413c" stroke-linecap="round" stroke-linejoin="round"><path d="m17.6992 11.4968h37.4083v49.1994h-37.4083z"/><path d="m20.9258 18.1458h30.9588v36.5669h-30.9588z" fill="#9ceb60"/><path d="m39.581 30.887 12.3027 8.7102v-6.0777l-9.5516-6.7617 5.7379-8.6121h-5.8959l-3.8486 5.7762-4.7007-3.33 1.6301-2.4471h-3.7936l-.4156.6228-.8809-.6228h-7.9495c-.1681.0002-.3346.0348-.4898.1017l6.5709 4.6512-7.3706 11.0637v5.6916l.5849-.8793 4.7025 3.33-5.2874 7.9371v3.7728c0 .2387.092.4676.2557.6364s.3858.2636.6174.2636h1.8204l6.6005-9.774 13.9929 9.774h5.875l-17.9855-12.6zm-11.4854 8.3898-4.7007-3.33 7.478-11.2257 4.7015 3.33z" fill="#fff48c"/></g><path d="m36.4706 13.8909c-.1532-.0002-.3031.0465-.4306.1341-.1275.0877-.2268.2124-.2856.3583-.0587.1459-.0741.3065-.0442.4614.0298.1549.1036.2973.2119.409.1084.1117.2465.1877.3968.2185.1503.0307.3061.0149.4476-.0457.1415-.0605.2625-.163.3475-.2944s.1303-.2859.1302-.4438c-.0003-.2114-.0818-.4141-.2269-.5636-.145-.1495-.3416-.2336-.5467-.2338z" fill="#45413c"/><path d="m33.543 32.6438c0 1.2696.4892 2.4872 1.3601 3.385.871.8977 2.0522 1.4021 3.2838 1.4021 1.2317 0 2.4129-.5044 3.2838-1.4021.8709-.8978 1.3602-2.1154 1.3602-3.385s-.4893-2.4872-1.3602-3.385-2.0521-1.4021-3.2838-1.4021c-1.2316 0-2.4128.5043-3.2838 1.4021-.8709.8978-1.3601 2.1154-1.3601 3.385z" fill="#ff6242" stroke="#45413c" stroke-linecap="round" stroke-linejoin="round"/><path d="m35.8242 57.7711c0 .1764.068.3455.189.4703.121.1247.2851.1948.4562.1948s.3353-.0701.4563-.1948c.121-.1248.1889-.2939.1889-.4703s-.0679-.3456-.1889-.4703c-.121-.1248-.2852-.1948-.4563-.1948s-.3352.07-.4562.1948c-.121.1247-.189.2939-.189.4703z" stroke="#45413c" stroke-linecap="round" stroke-linejoin="round"/><path d="m51.6674 53.1569-9.3944-9.6849c-.1952-.1968-.3505-.4315-.457-.6905-.1065-.2591-.1621-.5373-.1636-.8187-.0015-.2813.0511-.5602.1549-.8205.1038-.2602.2566-.4966.4496-.6956.193-.1989.4223-.3565.6748-.4634.2525-.107.523-.1613.7959-.1597.273.0015.5429.0589.7942.1687s.479.2699.6699.471l7.2056 7.4268c-.3801-.4005-.5916-.9393-.5886-1.4995s.2202-1.0967.6045-1.4928.9046-.6201 1.4481-.6231c.5435-.0031 1.0662.2149 1.4547.6067l.7299.7524c-.3668-.4029-.5671-.9371-.5587-1.4895.0085-.5525.2251-1.0799.6041-1.4706.3789-.3908.8905-.6143 1.4264-.6232.5359-.0088 1.0542.1975 1.4452.5755l.7299.7524c-.3801-.4005-.5916-.9393-.5886-1.4995s.2202-1.0967.6045-1.4928.9047-.6201 1.4481-.6231c.5435-.0031 1.0662.2149 1.4547.6067l5.2918 5.4504c3.7595 3.8754 2.9589 6.0588 5.1084 8.2746l2.0081 2.07-8.3912 8.6499c-4.2048-4.3344-7.4492 1.503-14.0916-5.3433-2.5093-2.5812-2.6778-4.4505-.8696-6.3144z" fill="#ffcebf"/><path d="m57.628 47.2642-1.5811-1.6299z" fill="#ffcebf"/><path d="m57.628 47.2642-1.5811-1.6299" stroke="#45413c" stroke-linecap="round" stroke-linejoin="round"/><path d="m54.5873 50.1481-2.1889-2.2572z" fill="#ffcebf"/><path d="m54.5873 50.1481-2.1889-2.2572" stroke="#45413c" stroke-linecap="round" stroke-linejoin="round"/><path d="m60.5466 44.2557-.8513-.8775z" fill="#ffcebf"/><path d="m60.5466 44.2557-.8513-.8775" stroke="#45413c" stroke-linecap="round" stroke-linejoin="round"/><path d="m66.627 64.8153 8.3912-8.6454-2.0081-2.07c-.8269-.9243-1.4491-2.0227-1.8239-3.2193-1.3089 2.844-3.1778 5.3761-5.4876 7.4352-2.3098 2.059-5.0101 3.6-7.9291 4.5249 3.4679.8703 5.9292-1.0431 8.8575 1.9746z" fill="#ffb59e"/><path d="m66.6268 64.8155c-4.2048-4.3344-7.4491 1.503-14.0916-5.3433-2.5075-2.5857-2.676-4.4514-.8678-6.3153l-9.3944-9.6849c-.1952-.1968-.3505-.4315-.457-.6905-.1065-.2591-.1621-.5373-.1636-.8187-.0015-.2813.0511-.5602.1549-.8205.1038-.2602.2566-.4966.4496-.6956.193-.1989.4223-.3565.6748-.4634.2525-.107.523-.1613.7959-.1597.273.0015.5429.0589.7942.1687s.479.2699.6699.471l7.2056 7.4268c-.3801-.4005-.5916-.9393-.5886-1.4995s.2202-1.0967.6045-1.4928.9046-.6201 1.4481-.6231c.5435-.0031 1.0662.2149 1.4547.6067l.7299.7524c-.3668-.4029-.5671-.9371-.5587-1.4895.0085-.5525.2251-1.0799.6041-1.4706.3789-.3908.8905-.6143 1.4264-.6232.5359-.0088 1.0542.1975 1.4452.5755l.7299.7524c-.3801-.4005-.5916-.9393-.5886-1.4995s.2202-1.0967.6045-1.4928.9047-.6201 1.4481-.6231c.5435-.0031 1.0662.2149 1.4547.6067l5.2918 5.4504c3.7595 3.8754 2.9589 6.0588 5.1084 8.2746l2.0081 2.07" stroke="#45413c" stroke-linecap="round" stroke-linejoin="round"/><path d="m54.9516 56.5419-3.2836-3.3849" stroke="#45413c" stroke-linecap="round" stroke-linejoin="round"/></svg>

<svg width="76" height="74" viewBox="0 0 76 74" fill="none" xmlns="http://www.w3.org/2000/svg">
<path d="M1 37C1 46.5478 4.67943 55.7045 11.2288 62.4558C17.7783 69.2072 26.6612 73 35.9235 73C45.1857 73 54.0687 69.2072 60.6181 62.4558C67.1675 55.7045 70.8469 46.5478 70.8469 37C70.8469 27.4522 67.1675 18.2955 60.6181 11.5442C54.0687 4.79285 45.1857 1 35.9235 1C26.6612 1 17.7783 4.79285 11.2288 11.5442C4.67943 18.2955 1 27.4522 1 37Z" fill="#E8F4FA" stroke="#DAEDF7"/>
<path opacity="0.15" d="M18.3457 62.0261C18.3457 62.5551 20.2483 63.0624 23.635 63.4364C27.0217 63.8104 31.6151 64.0205 36.4046 64.0205C41.1941 64.0205 45.7875 63.8104 49.1742 63.4364C52.5609 63.0624 54.4635 62.5551 54.4635 62.0261C54.4635 61.4972 52.5609 60.9899 49.1742 60.6159C45.7875 60.2419 41.1941 60.0317 36.4046 60.0317C31.6151 60.0317 27.0217 60.2419 23.635 60.6159C20.2483 60.9899 18.3457 61.4972 18.3457 62.0261Z" fill="#45413C"/>
<path d="M17.6992 11.4968H55.1075V60.6962H17.6992V11.4968Z" fill="#E8F4FA"/>
<path d="M55.1075 13.2968C55.1075 12.8194 54.9235 12.3616 54.596 12.024C54.2686 11.6865 53.8244 11.4968 53.3613 11.4968H19.4454C18.9823 11.4968 18.5381 11.6865 18.2107 12.024C17.8832 12.3616 17.6992 12.8194 17.6992 13.2968V16.8158C17.6992 16.4666 17.766 16.1207 17.8956 15.7981C18.0253 15.4754 18.2153 15.1822 18.4549 14.9353C18.6944 14.6883 18.9789 14.4924 19.2919 14.3588C19.6049 14.2251 19.9404 14.1563 20.2792 14.1563H52.5275C53.2118 14.1563 53.868 14.4365 54.3518 14.9353C54.8357 15.434 55.1075 16.1105 55.1075 16.8158V13.2968Z" fill="white"/>
<path d="M17.6992 11.4968H55.1075V60.6962H17.6992V11.4968Z" stroke="#45413C" stroke-linecap="round" stroke-linejoin="round"/>
<path d="M20.9258 18.1458H51.8846V54.7127H20.9258V18.1458Z" fill="#9CEB60" stroke="#45413C" stroke-linecap="round" stroke-linejoin="round"/>
<path d="M39.581 30.887L51.8837 39.5972V33.5195L42.3321 26.7578L48.07 18.1457H42.1741L38.3255 23.9219L33.6248 20.5919L35.2549 18.1448H31.4613L31.0457 18.7676L30.1648 18.1448H22.2153C22.0472 18.145 21.8807 18.1796 21.7255 18.2465L28.2964 22.8977L20.9258 33.9614V39.653L21.5107 38.7737L26.2132 42.1037L20.9258 50.0408V53.8136C20.9258 54.0523 21.0178 54.2812 21.1815 54.45C21.3452 54.6188 21.5673 54.7136 21.7989 54.7136H23.6193L30.2198 44.9396L44.2127 54.7136H50.0877L32.1022 42.1136L39.581 30.887ZM28.0956 39.2768L23.3949 35.9468L30.8729 24.7211L35.5744 28.0511L28.0956 39.2768Z" fill="#FFF48C" stroke="#45413C" stroke-linecap="round" stroke-linejoin="round"/>
<path d="M36.4706 13.8909C36.3174 13.8907 36.1675 13.9374 36.04 14.025C35.9125 14.1127 35.8132 14.2374 35.7544 14.3833C35.6957 14.5292 35.6803 14.6898 35.7102 14.8447C35.74 14.9996 35.8138 15.142 35.9221 15.2537C36.0305 15.3654 36.1686 15.4414 36.3189 15.4722C36.4692 15.5029 36.625 15.4871 36.7665 15.4265C36.908 15.366 37.029 15.2635 37.114 15.1321C37.199 15.0007 37.2443 14.8462 37.2442 14.6883C37.2439 14.4769 37.1624 14.2742 37.0173 14.1247C36.8723 13.9752 36.6757 13.8911 36.4706 13.8909Z" fill="#45413C"/>
<path d="M33.543 32.6438C33.543 33.9134 34.0322 35.131 34.9031 36.0288C35.7741 36.9265 36.9553 37.4309 38.1869 37.4309C39.4186 37.4309 40.5998 36.9265 41.4707 36.0288C42.3416 35.131 42.8309 33.9134 42.8309 32.6438C42.8309 31.3742 42.3416 30.1566 41.4707 29.2588C40.5998 28.361 39.4186 27.8567 38.1869 27.8567C36.9553 27.8567 35.7741 28.361 34.9031 29.2588C34.0322 30.1566 33.543 31.3742 33.543 32.6438Z" fill="#FF6242" stroke="#45413C" stroke-linecap="round" stroke-linejoin="round"/>
<path d="M35.8242 57.7711C35.8242 57.9475 35.8922 58.1166 36.0132 58.2414C36.1342 58.3661 36.2983 58.4362 36.4694 58.4362C36.6405 58.4362 36.8047 58.3661 36.9257 58.2414C37.0467 58.1166 37.1146 57.9475 37.1146 57.7711C37.1146 57.5947 37.0467 57.4255 36.9257 57.3008C36.8047 57.176 36.6405 57.106 36.4694 57.106C36.2983 57.106 36.1342 57.176 36.0132 57.3008C35.8922 57.4255 35.8242 57.5947 35.8242 57.7711V57.7711Z" stroke="#45413C" stroke-linecap="round" stroke-linejoin="round"/>
<path d="M51.6674 53.1569L42.273 43.472C42.0778 43.2752 41.9225 43.0405 41.816 42.7815C41.7095 42.5224 41.6539 42.2442 41.6524 41.9628C41.6509 41.6815 41.7035 41.4026 41.8073 41.1423C41.9111 40.8821 42.0639 40.6457 42.2569 40.4467C42.4499 40.2478 42.6792 40.0902 42.9317 39.9833C43.1842 39.8763 43.4547 39.822 43.7276 39.8236C44.0006 39.8251 44.2705 39.8825 44.5218 39.9923C44.7731 40.1021 45.0008 40.2622 45.1917 40.4633L52.3973 47.8901C52.0172 47.4896 51.8057 46.9508 51.8087 46.3906C51.8117 45.8304 52.0289 45.2939 52.4132 44.8978C52.7975 44.5017 53.3178 44.2777 53.8613 44.2747C54.4048 44.2716 54.9275 44.4896 55.316 44.8814L56.0459 45.6338C55.6791 45.2309 55.4788 44.6967 55.4872 44.1443C55.4957 43.5918 55.7123 43.0644 56.0913 42.6737C56.4702 42.2829 56.9818 42.0594 57.5177 42.0505C58.0536 42.0417 58.5719 42.248 58.9629 42.626L59.6928 43.3784C59.3127 42.9779 59.1012 42.4391 59.1042 41.8789C59.1072 41.3187 59.3244 40.7822 59.7087 40.3861C60.093 39.99 60.6134 39.766 61.1568 39.763C61.7003 39.7599 62.223 39.9779 62.6115 40.3697L67.9033 45.8201C71.6628 49.6955 70.8622 51.8789 73.0117 54.0947L75.0198 56.1647L66.6286 64.8146C62.4238 60.4802 59.1794 66.3176 52.537 59.4713C50.0277 56.8901 49.8592 55.0208 51.6674 53.1569Z" fill="#FFCEBF"/>
<path d="M57.628 47.2642L56.0469 45.6343L57.628 47.2642Z" fill="#FFCEBF"/>
<path d="M57.628 47.2642L56.0469 45.6343" stroke="#45413C" stroke-linecap="round" stroke-linejoin="round"/>
<path d="M54.5873 50.1481L52.3984 47.8909L54.5873 50.1481Z" fill="#FFCEBF"/>
<path d="M54.5873 50.1481L52.3984 47.8909" stroke="#45413C" stroke-linecap="round" stroke-linejoin="round"/>
<path d="M60.5466 44.2557L59.6953 43.3782L60.5466 44.2557Z" fill="#FFCEBF"/>
<path d="M60.5466 44.2557L59.6953 43.3782" stroke="#45413C" stroke-linecap="round" stroke-linejoin="round"/>
<path d="M66.627 64.8153L75.0182 56.1699L73.0101 54.0999C72.1832 53.1756 71.561 52.0772 71.1862 50.8806C69.8773 53.7246 68.0084 56.2567 65.6986 58.3158C63.3888 60.3748 60.6885 61.9158 57.7695 62.8407C61.2374 63.711 63.6987 61.7976 66.627 64.8153Z" fill="#FFB59E"/>
<path d="M66.6268 64.8155C62.422 60.4811 59.1777 66.3185 52.5352 59.4722C50.0277 56.8865 49.8592 55.0208 51.6674 53.1569L42.273 43.472C42.0778 43.2752 41.9225 43.0405 41.816 42.7815C41.7095 42.5224 41.6539 42.2442 41.6524 41.9628C41.6509 41.6815 41.7035 41.4026 41.8073 41.1423C41.9111 40.8821 42.0639 40.6457 42.2569 40.4467C42.4499 40.2478 42.6792 40.0902 42.9317 39.9833C43.1842 39.8763 43.4547 39.822 43.7276 39.8236C44.0006 39.8251 44.2705 39.8825 44.5218 39.9923C44.7731 40.1021 45.0008 40.2622 45.1917 40.4633L52.3973 47.8901C52.0172 47.4896 51.8057 46.9508 51.8087 46.3906C51.8117 45.8304 52.0289 45.2939 52.4132 44.8978C52.7975 44.5017 53.3178 44.2777 53.8613 44.2747C54.4048 44.2716 54.9275 44.4896 55.316 44.8814L56.0459 45.6338C55.6791 45.2309 55.4788 44.6967 55.4872 44.1443C55.4957 43.5918 55.7123 43.0644 56.0913 42.6737C56.4702 42.2829 56.9818 42.0594 57.5177 42.0505C58.0536 42.0417 58.5719 42.248 58.9629 42.626L59.6928 43.3784C59.3127 42.9779 59.1012 42.4391 59.1042 41.8789C59.1072 41.3187 59.3244 40.7822 59.7087 40.3861C60.093 39.99 60.6134 39.766 61.1568 39.763C61.7003 39.7599 62.223 39.9779 62.6115 40.3697L67.9033 45.8201C71.6628 49.6955 70.8622 51.8789 73.0117 54.0947L75.0198 56.1647" stroke="#45413C" stroke-linecap="round" stroke-linejoin="round"/>
<path d="M54.9516 56.5419L51.668 53.157" stroke="#45413C" stroke-linecap="round" stroke-linejoin="round"/>
</svg>
